nextcloudappstore/core/static/assets/img/icons/categories/security.svg

<svg width="20" height="20" fill="none" style="-webkit-print-color-adjust:exact" version="1.1" viewBox="-0 0 20 20" xmlns="http://www.w3.org/2000/svg"><g rx="0" ry="0" fill="#000"><g class="fills"><path rx="0" ry="0" d="m10 10h5.833c-0.441 3.425-2.733 6.483-5.833 7.433v-7.433zh-5.833v-4.75l5.833-2.592m0-1.825-7.5 3.334v5c0 4.625 3.2 8.941 7.5 10 4.3-1.059 7.5-5.375 7.5-10v-5l-7.5-3.334z" fill="#007bbd"/></g></g></svg>

<svg xmlns:xlink="http://www.w3.org/1999/xlink" width="20" xmlns="http://www.w3.org/2000/svg" height="20" id="screenshot-db15cf86-6f9e-8025-8002-bbab9ed6fdcf" viewBox="-0 0 20 20" style="-webkit-print-color-adjust: exact;" fill="none" version="1.1"><g id="shape-db15cf86-6f9e-8025-8002-bbab9ed6fdcf" rx="0" ry="0" style="fill: rgb(0, 0, 0);"><g id="shape-db15cf86-6f9e-8025-8002-bbab9ed6fdd1"><g class="fills" id="fills-db15cf86-6f9e-8025-8002-bbab9ed6fdd1"><path rx="0" ry="0" d="M10.000,10.000L15.833,10.000C15.392,13.425,13.100,16.483,10.000,17.433L10.000,10.000ZL4.167,10.000L4.167,5.250L10.000,2.658M10.000,0.833L2.500,4.167L2.500,9.167C2.500,13.792,5.700,18.108,10.000,19.167C14.300,18.108,17.500,13.792,17.500,9.167L17.500,4.167L10.000,0.833ZZ" style="fill: rgb(0, 123, 189); fill-opacity: 1;"/></g></g></g></svg>
